frontend/src/assets/icons/phone.svg

<svg width="24" height="24" viewBox="0 0 24 24" fill="none" xmlns="http://www.w3.org/2000/svg">
<g id="phone">
<path id="Icon" d="M8.38028 8.85335C9.07627 10.303 10.0251 11.6616 11.2266 12.8632C12.4282 14.0648 13.7869 15.0136 15.2365 15.7096C15.3612 15.7694 15.4235 15.7994 15.5024 15.8224C15.7828 15.9041 16.127 15.8454 16.3644 15.6754C16.4313 15.6275 16.4884 15.5704 16.6027 15.4561C16.9523 15.1064 17.1271 14.9316 17.3029 14.8174C17.9658 14.3864 18.8204 14.3864 19.4833 14.8174C19.6591 14.9316 19.8339 15.1064 20.1835 15.4561L20.3783 15.6509C20.9098 16.1824 21.1755 16.4481 21.3198 16.7335C21.6069 17.301 21.6069 17.9713 21.3198 18.5389C21.1755 18.8242 20.9098 19.09 20.3783 19.6214L20.2207 19.779C19.6911 20.3087 19.4263 20.5735 19.0662 20.7757C18.6667 21.0001 18.0462 21.1615 17.588 21.1601C17.1751 21.1589 16.8928 21.0788 16.3284 20.9186C13.295 20.0576 10.4326 18.4332 8.04466 16.0452C5.65668 13.6572 4.03221 10.7948 3.17124 7.76144C3.01103 7.19699 2.93092 6.91477 2.9297 6.50182C2.92833 6.0436 3.08969 5.42311 3.31411 5.0236C3.51636 4.66357 3.78117 4.39876 4.3108 3.86913L4.46843 3.7115C4.99987 3.18006 5.2656 2.91433 5.55098 2.76999C6.11854 2.48292 6.7888 2.48292 7.35636 2.76999C7.64174 2.91433 7.90747 3.18006 8.43891 3.7115L8.63378 3.90637C8.98338 4.25597 9.15819 4.43078 9.27247 4.60655C9.70347 5.26945 9.70347 6.12403 9.27247 6.78692C9.15819 6.96269 8.98338 7.1375 8.63378 7.4871C8.51947 7.60142 8.46231 7.65857 8.41447 7.72538C8.24446 7.96281 8.18576 8.30707 8.26748 8.58743C8.29048 8.66632 8.32041 8.72866 8.38028 8.85335Z" stroke="black" stroke-width="2" stroke-linecap="round" stroke-linejoin="round"/>
</g>
</svg>

<svg xmlns="http://www.w3.org/2000/svg" width="24" height="24" fill="none" viewBox="0 0 24 24">
  <path stroke="#000" stroke-linecap="round" stroke-linejoin="round" stroke-width="2" d="M8.38 8.853a14.603 14.603 0 0 0 2.847 4.01 14.603 14.603 0 0 0 4.01 2.847c.124.06.187.09.265.112.28.082.625.023.862-.147.067-.048.124-.105.239-.219.35-.35.524-.524.7-.639a2 2 0 0 1 2.18 0c.176.115.35.29.7.64l.195.194c.532.531.797.797.942 1.082a2 2 0 0 1 0 1.806c-.145.285-.41.551-.942 1.082l-.157.158c-.53.53-.795.794-1.155.997-.4.224-1.02.386-1.478.384-.413-.001-.695-.081-1.26-.241a19.038 19.038 0 0 1-8.283-4.874A19.039 19.039 0 0 1 3.17 7.761c-.16-.564-.24-.846-.241-1.26a3.377 3.377 0 0 1 .384-1.477c.202-.36.467-.625.997-1.155l.157-.158c.532-.53.798-.797 1.083-.941a2 2 0 0 1 1.805 0c.286.144.551.41 1.083.942l.195.194c.35.35.524.525.638.7a2 2 0 0 1 0 2.18c-.114.177-.289.352-.638.701a2.037 2.037 0 0 0-.22.238 1.05 1.05 0 0 0-.147.862c.023.08.053.142.113.266Z"/>
</svg>
